X: 3525
T: Big Country
R: reel
M: 4/4
K: Emajor
[M: 3/2]B,C|"E"E2EF G2FE G2FE|"A"CE3- E4- E2B,C|"E"E2EF G2GB c2BG|
"G#m"B8 -B2GB|"C#m"c>d cB "G#m"G2FE G2FE|[M: 4/4]"A"CE3- "E/G#"E4-|
"F#m7"E6 B,C|[M: 3/2]"E"E2EF G2FE "B"F2ED|[M: 4/4]"E"E8-|E6||
Ge-|"C#m"e2Gd- "G#m"d2Ec-|"A"c2EB -"E"B2Ge-|"C#m"e2Gd- "G#m"d2Ec-|"A"c2Bg- "E"g2Ge-|
"C#m"e2Gd- "G#m"d2Ec-|"A"c2EB- "G#m"B2GE-|"C#m"E2ED- "G#m/B"DE2G-|"Amaj7"G8-|G6||

